src/assets/icons/cars/socket.svg

<svg width="48" height="48" viewBox="0 0 48 48" fill="none" xmlns="http://www.w3.org/2000/svg">
<g id="Icons / Vertical Cars / Car engine electric">
<g id="Vector">
<path fill-rule="evenodd" clip-rule="evenodd" d="M38 35.9844C38 37.0954 37.096 38.0004 35.984 38.0004H12.016C10.904 38.0004 10 37.0954 10 35.9844V12.0154C10 10.9044 10.904 10.0004 12.016 10.0004H35.984C37.096 10.0004 38 10.9044 38 12.0154V35.9844ZM35.984 8.00043H12.016C9.798 8.00043 8 9.79743 8 12.0154V35.9844C8 38.2024 9.798 40.0004 12.016 40.0004H35.984C38.202 40.0004 40 38.2024 40 35.9844V12.0154C40 9.79743 38.202 8.00043 35.984 8.00043Z" fill="#253238"/>
<path fill-rule="evenodd" clip-rule="evenodd" d="M25 32.941V32C25 31.448 24.552 31 24 31C23.448 31 23 31.448 23 32V32.941C18.507 32.441 15 28.624 15 24C15 19.376 18.507 15.559 23 15.059V16C23 16.552 23.448 17 24 17C24.552 17 25 16.552 25 16V15.059C29.493 15.559 33 19.376 33 24C33 28.624 29.493 32.441 25 32.941ZM24 13C17.935 13 13 17.935 13 24C13 30.065 17.935 35 24 35C30.065 35 35 30.065 35 24C35 17.935 30.065 13 24 13Z" fill="#253238"/>
<path fill-rule="evenodd" clip-rule="evenodd" d="M20 21C19.448 21 19 21.448 19 22V26C19 26.552 19.448 27 20 27C20.552 27 21 26.552 21 26V22C21 21.448 20.552 21 20 21Z" fill="#253238"/>
<path fill-rule="evenodd" clip-rule="evenodd" d="M28 21C27.448 21 27 21.448 27 22V26C27 26.552 27.448 27 28 27C28.552 27 29 26.552 29 26V22C29 21.448 28.552 21 28 21Z" fill="#253238"/>
</g>
</g>
</svg>

<svg width="48" height="48" viewBox="0 0 48 48" fill="none" xmlns="http://www.w3.org/2000/svg"><g fill-rule="evenodd" clip-rule="evenodd" fill="#253238"><path d="M38 35.984A2.018 2.018 0 0135.984 38H12.016A2.018 2.018 0 0110 35.984V12.015c0-1.11.904-2.015 2.016-2.015h23.968c1.112 0 2.016.904 2.016 2.015v23.97zM35.984 8H12.016A4.015 4.015 0 008 12.015v23.97A4.016 4.016 0 0012.016 40h23.968A4.016 4.016 0 0040 35.984V12.015A4.015 4.015 0 0035.984 8z"/><path d="M25 32.941V32a1 1 0 00-2 0v.941c-4.493-.5-8-4.317-8-8.941 0-4.624 3.507-8.441 8-8.941V16a1 1 0 002 0v-.941c4.493.5 8 4.317 8 8.941 0 4.624-3.507 8.441-8 8.941zM24 13c-6.065 0-11 4.935-11 11s4.935 11 11 11 11-4.935 11-11-4.935-11-11-11z"/><path d="M20 21a1 1 0 00-1 1v4a1 1 0 002 0v-4a1 1 0 00-1-1zM28 21a1 1 0 00-1 1v4a1 1 0 002 0v-4a1 1 0 00-1-1z"/></g></svg>
